public/images/products/doble-alu/benefit-1.svg

<svg fill="none" height="32" viewBox="0 0 32 32" width="32" xmlns="http://www.w3.org/2000/svg"><g fill="#fff"><path d="m11.5751.00000224c1.3348 0 2.5838.36968476 3.6497 1.01200776.9718.5856 1.7909 1.39855 2.3835 2.36501.3203-.11934.6506-.21597.9891-.28797.4797-.10199.9748-.15573 1.4796-.15573 1.5307 0 2.9488.48654 4.1073 1.31319 1.1087.79117 1.9786 1.89367 2.4808 3.17906 1.228.23297 2.3107.87308 3.1014 1.77404.8459.96399 1.3586 2.22469 1.3586 3.60319 0 1.5121-.6146 2.881-1.6082 3.872-.9937.9909-2.3664 1.6038-3.8826 1.6038h-20.14349c-1.51619 0-2.88893-.6129-3.88257-1.6038-.993613-.991-1.60824-2.3599-1.60824-3.872 0-1.4231.546823-2.7209 1.44283-3.69605.79625-.86664 1.86703-1.47695 3.07352-1.69299-.0069-.12906-.01043-.25049-.01043-.36398 0-1.9467.79129-3.70915 2.07053-4.98492 1.27927-1.27576 3.04659-2.06486 4.99865-2.06486zm3.1326 1.86746776c-.9137-.55059-1.9856-.86747-3.1326-.86747-1.67523 0-3.19189.67715-4.28966 1.7719-1.09774 1.09476-1.77677 2.60723-1.77677 4.27788 0 .13551.00346.25832.01017.3688.00703.11627.0186.2395.03432.36893l.06223.51215-.5166.04449c-1.15437.09946-2.1827.63256-2.91953 1.4345-.7306.79515-1.1765 1.85675-1.1765 3.02415 0 1.236.50236 2.355 1.31447 3.1649.81215.8099 1.93421 1.3109 3.17358 1.3109h20.14349c1.2394 0 2.3615-.501 3.1736-1.3109s1.3145-1.9289 1.3145-3.1649c0-1.1299-.4181-2.1608-1.108-2.94694-.6998-.79753-1.6784-1.34515-2.7835-1.49107l-.3092-.04082-.1001-.29316c-.4125-1.20795-1.197-2.24392-2.2171-2.9718-.993-.70861-2.2108-1.12569-3.5275-1.12569-.439 0-.8644.04565-1.272.13231-.4232.09001-.8283.22303-1.2105.39405l-.4278.19148-.2185-.41412c-.5162-.97852-1.2939-1.79914-2.2405-2.36956z"/><path d="m5.18848 25.6392c0 .2761.22448.5.50137.5s.50137-.2239.50137-.5v-3.0525c0-.2761-.22448-.5-.50137-.5s-.50137.2239-.50137.5z"/><path d="m15.0605 25.6392c0 .2761.2245.5.5014.5s.5014-.2239.5014-.5v-3.0525c0-.2761-.2245-.5-.5014-.5s-.5014.2239-.5014.5z"/><path d="m24.9341 25.6392c0 .2761.2245.5.5014.5.2768 0 .5013-.2239.5013-.5v-3.0525c0-.2761-.2245-.5-.5013-.5-.2769 0-.5014.2239-.5014.5z"/><path d="m10.1245 31.5c0 .2761.2245.5.5014.5s.5014-.2239.5014-.5v-3.0525c0-.2762-.2245-.5001-.5014-.5001s-.5014.2239-.5014.5001z"/><path d="m19.998 31.5c0 .2761.2245.5.5014.5s.5014-.2239.5014-.5v-3.0525c0-.2762-.2245-.5001-.5014-.5001s-.5014.2239-.5014.5001z"/></g></svg>

<svg width="32" height="32" viewBox="0 0 32 32" fill="none" xmlns="http://www.w3.org/2000/svg">
<path d="M11.5751 2.23517e-06C12.9099 2.23517e-06 14.1589 0.369687 15.2248 1.01201C16.1966 1.59761 17.0157 2.41056 17.6083 3.37702C17.9286 3.25768 18.2589 3.16105 18.5974 3.08905C19.0771 2.98706 19.5722 2.93332 20.077 2.93332C21.6077 2.93332 23.0258 3.41986 24.1843 4.24651C25.293 5.03768 26.1629 6.14018 26.6651 7.42557C27.8931 7.65854 28.9758 8.29865 29.7665 9.19961C30.6124 10.1636 31.1251 11.4243 31.1251 12.8028C31.1251 14.3149 30.5105 15.6838 29.5169 16.6748C28.5232 17.6657 27.1505 18.2786 25.6343 18.2786H5.49081C3.97462 18.2786 2.60188 17.6657 1.60824 16.6748C0.614627 15.6838 0 14.3149 0 12.8028C0 11.3797 0.546823 10.0819 1.44283 9.10675C2.23908 8.24011 3.30986 7.6298 4.51635 7.41376C4.50945 7.2847 4.50592 7.16327 4.50592 7.04978C4.50592 5.10308 5.29721 3.34063 6.57645 2.06486C7.85572 0.7891 9.62304 0 11.5751 0L11.5751 2.23517e-06ZM14.7077 1.86747C13.794 1.31688 12.7221 1 11.5751 1C9.89987 1 8.38321 1.67715 7.28544 2.7719C6.1877 3.86666 5.50867 5.37913 5.50867 7.04978C5.50867 7.18529 5.51213 7.3081 5.51884 7.41858C5.52587 7.53485 5.53744 7.65808 5.55316 7.78751L5.61539 8.29966L5.09879 8.34415C3.94442 8.44361 2.91609 8.97671 2.17926 9.77865C1.44866 10.5738 1.00276 11.6354 1.00276 12.8028C1.00276 14.0388 1.50512 15.1578 2.31723 15.9677C3.12938 16.7776 4.25144 17.2786 5.49081 17.2786H25.6343C26.8737 17.2786 27.9958 16.7776 28.8079 15.9677C29.62 15.1578 30.1224 14.0388 30.1224 12.8028C30.1224 11.6729 29.7043 10.642 29.0144 9.85586C28.3146 9.05833 27.336 8.51071 26.2309 8.36479L25.9217 8.32397L25.8216 8.03081C25.4091 6.82286 24.6246 5.78689 23.6045 5.05901C22.6115 4.3504 21.3937 3.93332 20.077 3.93332C19.638 3.93332 19.2126 3.97897 18.805 4.06563C18.3818 4.15564 17.9767 4.28866 17.5945 4.45968L17.1667 4.65116L16.9482 4.23704C16.432 3.25852 15.6543 2.4379 14.7077 1.86748L14.7077 1.86747Z" fill="white"/>
<path d="M5.18848 25.6392C5.18848 25.9153 5.41296 26.1392 5.68985 26.1392C5.96674 26.1392 6.19122 25.9153 6.19122 25.6392V22.5867C6.19122 22.3106 5.96674 22.0867 5.68985 22.0867C5.41296 22.0867 5.18848 22.3106 5.18848 22.5867V25.6392Z" fill="white"/>
<path d="M15.0605 25.6392C15.0605 25.9153 15.285 26.1392 15.5619 26.1392C15.8388 26.1392 16.0633 25.9153 16.0633 25.6392V22.5867C16.0633 22.3106 15.8388 22.0867 15.5619 22.0867C15.285 22.0867 15.0605 22.3106 15.0605 22.5867V25.6392Z" fill="white"/>
<path d="M24.9341 25.6392C24.9341 25.9153 25.1586 26.1392 25.4355 26.1392C25.7123 26.1392 25.9368 25.9153 25.9368 25.6392V22.5867C25.9368 22.3106 25.7123 22.0867 25.4355 22.0867C25.1586 22.0867 24.9341 22.3106 24.9341 22.5867V25.6392Z" fill="white"/>
<path d="M10.1245 31.5C10.1245 31.7761 10.349 32 10.6259 32C10.9028 32 11.1273 31.7761 11.1273 31.5V28.4475C11.1273 28.1713 10.9028 27.9474 10.6259 27.9474C10.349 27.9474 10.1245 28.1713 10.1245 28.4475V31.5Z" fill="white"/>
<path d="M19.998 31.5C19.998 31.7761 20.2225 32 20.4994 32C20.7763 32 21.0008 31.7761 21.0008 31.5V28.4475C21.0008 28.1713 20.7763 27.9474 20.4994 27.9474C20.2225 27.9474 19.998 28.1713 19.998 28.4475V31.5Z" fill="white"/>
</svg>
